app/assets/fonts/src/U2721_STAR_OF_DAVID.svg

<?xml version="1.0" encoding="utf-8"?>
<!-- Generated by IcoMoon.io -->
<!DOCTYPE svg PUBLIC "-//W3C//DTD SVG 1.1//EN" "http://www.w3.org/Graphics/SVG/1.1/DTD/svg11.dtd">
<svg version="1.1" xmlns="http://www.w3.org/2000/svg" xmlns:xlink="http://www.w3.org/1999/xlink" width="1024" height="1024" viewBox="0 0 1024 1024"><g id="icomoon-ignore">
</g>
<path d="M68.597 256.003h295.609l147.793-256.008 147.805 255.997h295.598l-147.782 256.008 147.793 256.008h-295.598l-147.815 255.987-147.805-255.987h-295.598l147.793-256.008-147.793-255.997zM512 135.644l-69.484 120.359h138.968l-69.484-120.359zM698.97 323.833l69.484 120.337 69.473-120.337h-138.958zM768.454 579.83l-69.484 120.348h138.958l-69.473-120.348zM442.516 768.008l69.484 120.348 69.484-120.359h-138.968zM255.556 444.17l69.484-120.337h-138.968l69.484 120.337zM294.722 512l108.639 188.178h217.288l108.639-188.178-108.639-188.167h-217.288l-108.639 188.167zM255.556 579.83l-69.484 120.348h138.968l-69.484-120.348z"></path>
</svg>

<svg xmlns="http://www.w3.org/2000/svg" width="1024" height="1024" viewBox="0 0 1024 1024"><path d="M68.597 256.003h295.61L511.997-.005l147.805 255.997H955.4L807.62 512l147.793 256.008H659.815L512 1023.995 364.195 768.008H68.597L216.39 512 68.597 256.003zM512 135.643l-69.484 120.36h138.968L512 135.643zm186.97 188.19l69.484 120.337 69.473-120.337H698.97zm69.484 255.997L698.97 700.178h138.958L768.455 579.83zM442.516 768.008L512 888.356l69.484-120.36H442.516zM255.556 444.17l69.484-120.337H186.072l69.484 120.337zM294.722 512l108.64 188.178H620.65L729.286 512l-108.64-188.167H403.362L294.722 512zm-39.166 67.83l-69.484 120.348H325.04L255.556 579.83z"/></svg>
